X: 8282
T: Corner House, The
R: jig
M: 6/8
K: Dmajor
|:cB|Add dcd|fed A2 d|Bee edB|Be/e/e ecB|
Add dcd|fed A2 d|B2 d c>Bc|d3 d:|
|:AG|F2 A AFD|G2 B BAG|A2 c cBc|dcd BB/A/G|
FAA AFD|GBB BAG|A2 d c>Bc|d3- d2:|

